packages/tokens/icons/puzzleMissing/size24Px.svg

<svg viewBox="0 0 24 24" fill="none" xmlns="http://www.w3.org/2000/svg" width="1em" height="1em"><mask id="path-1-inside-1_1748_8231" fill="currentColor"><path fill-rule="evenodd" clip-rule="evenodd" d="M7 22C6.44772 22 6 21.5523 6 21L6 19H5.5C4.67157 19 4 18.3284 4 17.5C4 16.6716 4.67157 16 5.5 16H6V14C6 13.4477 6.44772 13 7 13L14 13V17H13H12.5C12.2239 17 12 17.2239 12 17.5C12 17.7761 12.2239 18 12.5 18H12.5003H13L14 18L14 22H7Z"/></mask><path d="M6 19H7C7 18.4477 6.55229 18 6 18V19ZM5.5 16V15H5.5L5.5 16ZM6 16V17C6.55229 17 7 16.5523 7 16H6ZM6 14H7V14L6 14ZM14 13H15C15 12.4477 14.5523 12 14 12V13ZM14 17V18C14.5523 18 15 17.5523 15 17H14ZM13 18L13 19H13L13 18ZM14 18H15C15 17.7348 14.8946 17.4804 14.7071 17.2929C14.5196 17.1054 14.2652 17 14 17L14 18ZM14 22V23C14.5523 23 15 22.5523 15 22H14ZM5 21C5 22.1046 5.89543 23 7 23V21H5ZM5 19L5 21H7L7 19H5ZM6 18H5.5V20H6L6 18ZM5.5 18C5.22386 18 5 17.7761 5 17.5H3C3 18.8807 4.11929 20 5.5 20V18ZM5 17.5C5 17.2239 5.22386 17 5.5 17L5.5 15C4.11929 15 3 16.1193 3 17.5H5ZM5.5 17H6V15H5.5L5.5 17ZM5 14V16H7V14H5ZM7 12C5.89543 12 5 12.8954 5 14L7 14V14V12ZM14 12L7 12V14L14 14V12ZM15 17V13H13V17H15ZM13 18H14V16H13V18ZM12.5 18H13V16H12.5V18ZM13 17.5C13 17.7761 12.7761 18 12.5 18V16C11.6716 16 11 16.6716 11 17.5H13ZM12.5 17C12.7761 17 13 17.2239 13 17.5H11C11 18.3284 11.6716 19 12.5 19L12.5 17ZM12.5003 17H12.5L12.5 19H12.5003L12.5003 17ZM13 17H12.5003L12.5003 19H13L13 17ZM14 17L13 17L13 19L14 19L14 17ZM15 22L15 18H13L13 22H15ZM7 23H14V21H7V23Z" fill="currentColor" mask="url(#path-1-inside-1_1748_8231)"/><mask id="path-3-inside-2_1748_8231" fill="currentColor"><path fill-rule="evenodd" clip-rule="evenodd" d="M13 7C13 6.44772 13.4477 6 14 6L15.5 6C15.7761 6 16 5.77614 16 5.5L16 4.5C16 3.67157 16.6716 3 17.5 3C18.3284 3 19 3.67157 19 4.5L19 5.5C19 5.77614 19.2239 6 19.5 6L21 6C21.5523 6 22 6.44772 22 7L22 13.5C22 13.7761 21.7761 14 21.5 14L18.5 14C18.2239 14 18 13.7761 18 13.5L18 13L18 12.5C18 12.2239 17.7761 12 17.5 12C17.2239 12 17 12.2239 17 12.5L17 12.5003L17 13L17 13.5C17 13.7761 16.7761 14 16.5 14L14 14C13.4477 14 13 13.5523 13 13L13 7Z"/></mask><path d="M16 4.5L15 4.5L15 4.5L16 4.5ZM19 4.5L20 4.5L20 4.5L19 4.5ZM21 6L21 7L21 7L21 6ZM22 7L21 7L22 7ZM18 13L17 13L18 13ZM17 12.5L16 12.5L17 12.5ZM17 12.5003L18 12.5003L17 12.5003ZM17 13L16 13L17 13ZM19 5.5L20 5.5L19 5.5ZM17 13.5L18 13.5L17 13.5ZM16 5.5L17 5.5L16 5.5ZM14 5C12.8954 5 12 5.89543 12 7L14 7L14 5ZM15.5 5L14 5L14 7L15.5 7L15.5 5ZM17 5.5L17 4.5L15 4.5L15 5.5L17 5.5ZM17 4.5C17 4.22386 17.2239 4 17.5 4L17.5 2C16.1193 2 15 3.11929 15 4.5L17 4.5ZM17.5 4C17.7761 4 18 4.22386 18 4.5L20 4.5C20 3.11929 18.8807 2 17.5 2L17.5 4ZM18 4.5L18 5.5L20 5.5L20 4.5L18 4.5ZM21 5L19.5 5L19.5 7L21 7L21 5ZM23 7C23 5.89543 22.1046 5 21 5L21 7L21 7L23 7ZM23 13.5L23 7L21 7L21 13.5L23 13.5ZM18.5 15L21.5 15L21.5 13L18.5 13L18.5 15ZM17 13L17 13.5L19 13.5L19 13L17 13ZM17 12.5L17 13L19 13L19 12.5L17 12.5ZM17.5 13C17.2239 13 17 12.7761 17 12.5L19 12.5C19 11.6716 18.3284 11 17.5 11L17.5 13ZM18 12.5C18 12.7761 17.7761 13 17.5 13L17.5 11C16.6716 11 16 11.6716 16 12.5L18 12.5ZM18 12.5003L18 12.5L16 12.5L16 12.5003L18 12.5003ZM18 13L18 12.5003L16 12.5003L16 13L18 13ZM18 13.5L18 13L16 13L16 13.5L18 13.5ZM14 15L16.5 15L16.5 13L14 13L14 15ZM12 13C12 14.1046 12.8954 15 14 15L14 13L12 13ZM12 7L12 13L14 13L14 7L12 7ZM18.5 13C18.7761 13 19 13.2239 19 13.5L17 13.5C17 14.3284 17.6716 15 18.5 15L18.5 13ZM21 13.5C21 13.2239 21.2239 13 21.5 13L21.5 15C22.3284 15 23 14.3284 23 13.5L21 13.5ZM18 5.5C18 6.32843 18.6716 7 19.5 7L19.5 5C19.7761 5 20 5.22386 20 5.5L18 5.5ZM16 13.5C16 13.2239 16.2239 13 16.5 13L16.5 15C17.3284 15 18 14.3284 18 13.5L16 13.5ZM15.5 7C16.3284 7 17 6.32843 17 5.5L15 5.5C15 5.22386 15.2239 5 15.5 5L15.5 7Z" fill="currentColor" mask="url(#path-3-inside-2_1748_8231)"/><mask id="path-5-inside-3_1748_8231" fill="currentColor"/><path d="M21 21.5L21 21L21 21.5ZM13.75 21.5L13.75 22L13.75 21.5ZM21 13.75L21 21L22 21L22 13.75L21 13.75ZM21 21L13.75 21L13.75 22L21 22L21 21ZM14 21.25L14 19L13 19L13 21.25L14 21.25ZM14 16L14 13.75L13 13.75L13 16L14 16ZM19.8929 14L21.25 14L21.25 13L19.8929 13L19.8929 14ZM13.75 14L15.6071 14L15.6071 13L13.75 13L13.75 14ZM21 21H21L21 22C21.5523 22 22 21.5523 22 21L21 21ZM14 13.75C14 13.8881 13.8881 14 13.75 14L13.75 13C13.3358 13 13 13.3358 13 13.75L14 13.75ZM13.75 21C13.8881 21 14 21.1119 14 21.25L13 21.25C13 21.6642 13.3358 22 13.75 22L13.75 21ZM22 13.75C22 13.3358 21.6642 13 21.25 13L21.25 14C21.1119 14 21 13.8881 21 13.75L22 13.75Z" fill="currentColor" mask="url(#path-5-inside-3_1748_8231)"/><mask id="path-7-inside-4_1748_8231" fill="currentColor"><path fill-rule="evenodd" clip-rule="evenodd" d="M2 3C2 2.44772 2.44772 2 3 2L9 2C9.55228 2 10 2.44772 10 3V4.5H10.5C11.3284 4.5 12 5.17157 12 6C12 6.82843 11.3284 7.5 10.5 7.5L10 7.5V9C10 9.55228 9.55228 10 9 10L7.5 10L7.5 10.5C7.5 11.3284 6.82843 12 6 12C5.17157 12 4.5 11.3284 4.5 10.5V10H3C2.44772 10 2 9.55228 2 9L2 3Z"/></mask><path d="M10 4.5H9C9 5.05228 9.44772 5.5 10 5.5V4.5ZM10.5 4.5V5.5V4.5ZM10 7.5V6.5C9.44772 6.5 9 6.94772 9 7.5H10ZM7.5 10V9C6.94772 9 6.5 9.44772 6.5 10H7.5ZM4.5 10H5.5C5.5 9.44772 5.05228 9 4.5 9V10ZM3 1C1.89543 1 1 1.89543 1 3H3V1ZM9 1L3 1V3L9 3V1ZM11 3C11 1.89543 10.1046 1 9 1V3L11 3ZM11 4.5V3L9 3V4.5H11ZM10 5.5H10.5V3.5H10V5.5ZM10.5 5.5C10.7761 5.5 11 5.72386 11 6H13C13 4.61929 11.8807 3.5 10.5 3.5V5.5ZM11 6C11 6.27614 10.7761 6.5 10.5 6.5L10.5 8.5C11.8807 8.5 13 7.38071 13 6H11ZM10.5 6.5L10 6.5V8.5L10.5 8.5L10.5 6.5ZM11 9L11 7.5L9 7.5V9L11 9ZM9 11C10.1046 11 11 10.1046 11 9L9 9L9 11ZM7.5 11L9 11L9 9H7.5L7.5 11ZM8.5 10.5L8.5 10L6.5 10L6.5 10.5L8.5 10.5ZM6 13C7.38071 13 8.5 11.8807 8.5 10.5L6.5 10.5C6.5 10.7761 6.27614 11 6 11V13ZM3.5 10.5C3.5 11.8807 4.61929 13 6 13V11C5.72386 11 5.5 10.7761 5.5 10.5H3.5ZM3.5 10V10.5H5.5V10H3.5ZM3 11H4.5V9H3L3 11ZM1 9C1 10.1046 1.89543 11 3 11L3 9H1ZM1 3L1 9H3L3 3H1Z" fill="currentColor" mask="url(#path-7-inside-4_1748_8231)"/></svg>

<svg xmlns="http://www.w3.org/2000/svg" fill="none" viewBox="0 0 24 24" width="1em" height="1em"><mask id="iconsPuzzleMissingSize24Px__a" fill="#fff"><path fill-rule="evenodd" d="M7 22a1 1 0 0 1-1-1v-2h-.5a1.5 1.5 0 0 1 0-3H6v-2a1 1 0 0 1 1-1h7v4h-1.5a.5.5 0 0 0 0 1H14v4H7Z" clip-rule="evenodd"/></mask><path fill="currentColor" d="M6 19h1a1 1 0 0 0-1-1v1Zm-.5-3v-1 1Zm.5 0v1a1 1 0 0 0 1-1H6Zm0-2h1-1Zm8-1h1a1 1 0 0 0-1-1v1Zm0 4v1a1 1 0 0 0 1-1h-1Zm-1 1v1-1Zm1 0h1a1 1 0 0 0-1-1v1Zm0 4v1a1 1 0 0 0 1-1h-1Zm-9-1a2 2 0 0 0 2 2v-2H5Zm0-2v2h2v-2H5Zm1-1h-.5v2H6v-2Zm-.5 0a.5.5 0 0 1-.5-.5H3A2.5 2.5 0 0 0 5.5 20v-2Zm-.5-.5a.5.5 0 0 1 .5-.5v-2A2.5 2.5 0 0 0 3 17.5h2Zm.5-.5H6v-2h-.5v2ZM5 14v2h2v-2H5Zm2-2a2 2 0 0 0-2 2h2v-2Zm7 0H7v2h7v-2Zm1 5v-4h-2v4h2Zm-2 1h1v-2h-1v2Zm-.5 0h.5v-2h-.5v2Zm.5-.5a.5.5 0 0 1-.5.5v-2a1.5 1.5 0 0 0-1.5 1.5h2Zm-.5-.5a.5.5 0 0 1 .5.5h-2a1.5 1.5 0 0 0 1.5 1.5v-2Zm0 0v2-2Zm.5 0h-.5v2h.5v-2Zm1 0h-1v2h1v-2Zm1 5v-4h-2v4h2Zm-8 1h7v-2H7v2Z" mask="url(#iconsPuzzleMissingSize24Px__a)"/><mask id="iconsPuzzleMissingSize24Px__b" fill="#fff"><path fill-rule="evenodd" d="M13 7a1 1 0 0 1 1-1h1.5a.5.5 0 0 0 .5-.5v-1a1.5 1.5 0 0 1 3 0v1a.5.5 0 0 0 .5.5H21a1 1 0 0 1 1 1v6.5a.5.5 0 0 1-.5.5h-3a.5.5 0 0 1-.5-.5v-1a.5.5 0 0 0-1 0v1a.5.5 0 0 1-.5.5H14a1 1 0 0 1-1-1V7Z" clip-rule="evenodd"/></mask><path fill="currentColor" d="M16 4.5h-1 1Zm3 0h1-1ZM21 6v1-1Zm1 1h-1 1Zm-4 6h-1 1Zm-1-.5h-1 1Zm0 0h1-1Zm0 .5h-1 1Zm2-7.5h1-1Zm-2 8h1-1Zm-1-8h1-1ZM14 5a2 2 0 0 0-2 2h2V5Zm1.5 0H14v2h1.5V5Zm1.5.5v-1h-2v1h2Zm0-1a.5.5 0 0 1 .5-.5V2A2.5 2.5 0 0 0 15 4.5h2Zm.5-.5a.5.5 0 0 1 .5.5h2A2.5 2.5 0 0 0 17.5 2v2Zm.5.5v1h2v-1h-2Zm3 .5h-1.5v2H21V5Zm2 2a2 2 0 0 0-2-2v2h2Zm0 6.5V7h-2v6.5h2ZM18.5 15h3v-2h-3v2ZM17 13v.5h2V13h-2Zm0-.5v.5h2v-.5h-2Zm.5.5a.5.5 0 0 1-.5-.5h2a1.5 1.5 0 0 0-1.5-1.5v2Zm.5-.5a.5.5 0 0 1-.5.5v-2a1.5 1.5 0 0 0-1.5 1.5h2Zm0 0h-2 2Zm0 .5v-.5h-2v.5h2Zm0 .5V13h-2v.5h2ZM14 15h2.5v-2H14v2Zm-2-2a2 2 0 0 0 2 2v-2h-2Zm0-6v6h2V7h-2Zm6.5 6a.5.5 0 0 1 .5.5h-2a1.5 1.5 0 0 0 1.5 1.5v-2Zm2.5.5a.5.5 0 0 1 .5-.5v2a1.5 1.5 0 0 0 1.5-1.5h-2Zm-3-8A1.5 1.5 0 0 0 19.5 7V5a.5.5 0 0 1 .5.5h-2Zm-2 8a.5.5 0 0 1 .5-.5v2a1.5 1.5 0 0 0 1.5-1.5h-2ZM15.5 7A1.5 1.5 0 0 0 17 5.5h-2a.5.5 0 0 1 .5-.5v2Z" mask="url(#iconsPuzzleMissingSize24Px__b)"/><mask id="iconsPuzzleMissingSize24Px__c" fill="#fff"/><path fill="currentColor" d="M21 21.5V21v.5Zm-7.25 0v.5-.5ZM21 13.75V21h1v-7.25h-1ZM21 21h-7.25v1H21v-1Zm-7 .25V19h-1v2.25h1ZM14 16v-2.25h-1V16h1Zm5.893-2h1.357v-1h-1.357v1Zm-6.143 0h1.857v-1H13.75v1ZM21 21v1a1 1 0 0 0 1-1h-1Zm-7-7.25a.25.25 0 0 1-.25.25v-1a.75.75 0 0 0-.75.75h1ZM13.75 21a.25.25 0 0 1 .25.25h-1c0 .414.336.75.75.75v-1ZM22 13.75a.75.75 0 0 0-.75-.75v1a.25.25 0 0 1-.25-.25h1Z" mask="url(#iconsPuzzleMissingSize24Px__c)"/><mask id="iconsPuzzleMissingSize24Px__d" fill="#fff"><path fill-rule="evenodd" d="M2 3a1 1 0 0 1 1-1h6a1 1 0 0 1 1 1v1.5h.5a1.5 1.5 0 0 1 0 3H10V9a1 1 0 0 1-1 1H7.5v.5a1.5 1.5 0 0 1-3 0V10H3a1 1 0 0 1-1-1V3Z" clip-rule="evenodd"/></mask><path fill="currentColor" d="M10 4.5H9a1 1 0 0 0 1 1v-1Zm.5 0v1-1Zm-.5 3v-1a1 1 0 0 0-1 1h1ZM7.5 10V9a1 1 0 0 0-1 1h1Zm-3 0h1a1 1 0 0 0-1-1v1ZM3 1a2 2 0 0 0-2 2h2V1Zm6 0H3v2h6V1Zm2 2a2 2 0 0 0-2-2v2h2Zm0 1.5V3H9v1.5h2Zm-1 1h.5v-2H10v2Zm.5 0a.5.5 0 0 1 .5.5h2a2.5 2.5 0 0 0-2.5-2.5v2Zm.5.5a.5.5 0 0 1-.5.5v2A2.5 2.5 0 0 0 13 6h-2Zm-.5.5H10v2h.5v-2ZM11 9V7.5H9V9h2Zm-2 2a2 2 0 0 0 2-2H9v2Zm-1.5 0H9V9H7.5v2Zm1-.5V10h-2v.5h2ZM6 13a2.5 2.5 0 0 0 2.5-2.5h-2a.5.5 0 0 1-.5.5v2Zm-2.5-2.5A2.5 2.5 0 0 0 6 13v-2a.5.5 0 0 1-.5-.5h-2Zm0-.5v.5h2V10h-2ZM3 11h1.5V9H3v2ZM1 9a2 2 0 0 0 2 2V9H1Zm0-6v6h2V3H1Z" mask="url(#iconsPuzzleMissingSize24Px__d)"/></svg>
